!!!OTL: Lass rauschen! / (Tanzlied.)
!!!ARE: Europa, Mitteleuropa, Deutschland
!!!SCT: A0179
!!!TXL: @@GMH
!!!YEM: Copyright 1995, estate of Helmut Schaffrath.
**kern	**text
!! Mixed meters:  4/2; 3/1
*M4/2	*
*met(c|)	*
*clefC3	*
*k[]	*
*G:	*
=1	=1
!LO:TX:a:t=Vortanʒ	!
!LO:TX:a:t=mixolyd.	!
1ryy	.
2ryy	.
{2G	Laß
=2	=2
1G	rau-
1d	-ſchen,
=3	=3
1f	lieb,
1e	la
=4	=4
1.d	rau-
4c/	.
4B/	.
=5	=5
1A	-ſchen,
2r}	.
{2A	ich
=6	=6
1c	acht
1c	nit
=7	=7
1c	wie
1B	es
=8	=8
2.A	get,
4B	.
2.c/	.
8BL	.
8cJ	.
=9	=9
1d	.
2r}	.
{2d	ich
=10	=10
1G	hab
2A	mir
2A	ein
=11	=11
1B	bu-
2c	-len
2c	er-
=12	=12
2.A	-wor-
4G	.
!LO:SIC:o:2f#:v	!
2.F	.
4E	.
=13	=13
1D	-ben,
2r}	.
{2D	er-
=14	=14
2.A	-wor-
4B	.
2.c/	.
8BL	.
8cJ	.
=15	=15
1d	-ben
2r}	.
{2e	in
=16	=16
2d	fei-
2d	-el
1B	vnd
=17	=17
1c	grü-
1A	-nen
=18	=18
*M3/1	*
*met(3)	*
!LO:TX:a:t=Nachtanʒ.	!
1G	kle.
1r}	.
{1G	Ha-
=19	=19
1G	-ſtu
0d	ein
=20	=20
0f	buln
1e	er-
=21	=21
0d	-wor-
2c/	.
2B	.
=22	=22
0A}	-ben,
{1A	in
=23	=23
1c	fey-
1c	-el
1d	vnd
=24	=24
0c	grü-
1B	-nen
=25	=25
1.A	kle,
2B	.
2.c/	.
8B/L	.
8c/J	.
=26	=26
1d	.
1r}	.
{1d	ſo
=27	=27
1G	ſte
0A	ich
=28	=28
0B	hie
1c	al-
=29	=29
1.A	-lei-
2G	.
2F	.
2E	.
=30	=30
1D}	-ne,
1r	.
{1D	al-
=31	=31
1.A	-lei-
2B	.
2.c/	.
8BL	.
8cJ	.
=32	=32
0d	-ne,
1e	thut
=33	=33
*lig	*
1.d	mei-
2c	.
*Xlig	*
1B	-nem
=34	=34
1c	her-
0A	-tʒen
=35	=35
0B}	we,
{1e	thut
=36	=36
*lig	*
1.d	mei-
2c	.
*Xlig	*
1B	-nem
=37	=37
1c	her-
0A	-tʒen
=38	=38
0./llG}	we.
==	==
!!!GTL: Liebeslieder
!!!AGN: Romanze, Ballade, Lied
!! Schmeltzels Quodlibet 1544 No. 15.
!!!ONB: ESAC (Essen Associative Code) Database: ALTDEU
!!!AMT: irregular
!!!AIN: vox
!!!EED: Helmut Schaffrath
!!!EEV: 1.0
!!!RDF**kern: l = terminal long
!!!AMD: Mixolydian
!!!URL-scan: https://rosdok.uni-rostock.de/mcrviewer/recordIdentifier/rosdok_ppn738218359/iview2/phys_0340.iview2?x=-495.6391625615763&y=2321.240685342578&scale=0.4629418472063854&rotation=0&layout=singlePageLayout&logicalDiv=log_0009
!!!ENC: Anna Maria Matuszewska
!!!EEV: 2024/07/03
*-	*-
